X:127
T: Richmudis von Adocht
N: Q1112B
O: Mitteleuropa, Deutschland
N: Melodievergleich zu Q0112A, anderes Lied. Taktart in 3/4 gedeutet.
R: geistlich
M: 3/4
L: 1/4
K: G
 | G2_B | A2d | c2_B | A3 |
A2_B | c2d | dc2 | d3 |
d2_B | A2G | GF2 | G3

@@@ Tune index: 1420
